images/sponsor_workstation.svg

<svg width="182" height="51" viewBox="0 0 182 51" fill="none" xmlns="http://www.w3.org/2000/svg">
<path fill-rule="evenodd" clip-rule="evenodd" d="M43.342 20.4501L35.746 16.0651V36.4361H44.626V38.4101H1.21V36.4361H5.157V23.8861L1.479 24.8061L1 22.8901L21.81 17.6871H24.89C24.5505 18.4936 24.325 19.3434 24.22 20.2121L23.743 24.1341L28.839 21.1921V36.4351H33.772V16.0651L26.178 20.4501C26.3991 18.6103 27.3023 16.9203 28.709 15.7141H24.645C25.3983 14.708 26.3958 13.9106 27.5432 13.3974C28.6905 12.8841 29.9498 12.672 31.202 12.7811L25.685 9.59513C26.7413 9.14297 27.8885 8.94342 29.0354 9.01234C30.1824 9.08126 31.2974 9.41674 32.292 9.99213C33.2833 10.5621 34.1282 11.3551 34.76 12.3081C35.3914 11.3551 36.236 10.5621 37.227 9.99213C38.2217 9.41673 39.337 9.08124 40.4841 9.01233C41.6312 8.94341 42.7785 9.14296 43.835 9.59513L38.316 12.7811C39.5683 12.6718 40.8279 12.8837 41.9754 13.397C43.123 13.9102 44.1207 14.7078 44.874 15.7141H40.81C42.2175 16.9196 43.1214 18.6093 43.343 20.4491L43.342 20.4501ZM24.892 36.4361V26.5691H18.972V36.4361H24.892V36.4361ZM14.038 28.5421C14.038 29.0655 13.8301 29.5675 13.46 29.9376C13.0899 30.3077 12.5879 30.5156 12.0645 30.5156C11.5411 30.5156 11.0391 30.3077 10.669 29.9376C10.2989 29.5675 10.091 29.0655 10.091 28.5421C10.091 28.0187 10.2989 27.5168 10.669 27.1467C11.0391 26.7765 11.5411 26.5686 12.0645 26.5686C12.5879 26.5686 13.0899 26.7765 13.46 27.1467C13.8301 27.5168 14.038 28.0187 14.038 28.5421Z" fill="#9FA6B2"/>
<path d="M60.267 35.642H63.985L67.087 24.7L70.213 35.64H73.931L78.573 19.064H75.139L71.966 31.354L68.485 19.064H65.69L62.233 31.354L59.059 19.064H55.626L60.267 35.64V35.642Z" fill="#9FA6B2"/>
<path fill-rule="evenodd" clip-rule="evenodd" d="M84.5508 35.9732C88.0318 35.9732 90.8268 33.2502 90.8268 29.7212C90.8268 26.1932 88.0328 23.4692 84.5508 23.4692C81.0708 23.4692 78.2988 26.1932 78.2988 29.7212C78.2988 33.2502 81.0698 35.9732 84.5508 35.9732ZM84.5508 32.9892C82.7508 32.9892 81.3538 31.6392 81.3538 29.7212C81.3538 27.8032 82.7508 26.4532 84.5508 26.4532C86.3748 26.4532 87.7718 27.8032 87.7718 29.7212C87.7718 31.6392 86.3748 32.9892 84.5518 32.9892H84.5508Z" fill="#9FA6B2"/>
<path d="M96.0301 23.8002V25.8372C96.6471 24.2272 98.1381 23.5642 99.6301 23.5642V26.9742C98.0441 26.7842 96.0301 27.4952 96.0301 29.9822V35.6422H92.9761V23.8002H96.0311H96.0301ZM112.334 35.6422L107.432 29.6502L112.192 23.8002H108.545L104.472 29.0102V19.0642H101.417V35.6422H104.472V30.2662L108.782 35.6422H112.334V35.6422ZM153.439 20.5102C153.439 21.5282 152.586 22.3802 151.544 22.3802C151.05 22.3753 150.577 22.1767 150.227 21.8271C149.877 21.4775 149.678 21.0047 149.673 20.5102C149.673 19.4912 150.526 18.6152 151.544 18.6152C152.586 18.6152 153.439 19.4912 153.439 20.5092V20.5102ZM153.084 35.6422H150.029V23.8002H153.084V35.6402V35.6422ZM147.875 26.7382V23.8002H145.199V20.4852L142.144 21.4082V23.8002H140.084V26.7372H142.144V31.6622C142.144 34.8592 143.588 36.1142 147.875 35.6412V32.8702C146.122 32.9652 145.199 32.9412 145.199 31.6622V26.7372H147.875V26.7382ZM124.847 32.8952C123.829 34.7422 121.816 35.9732 119.495 35.9732C115.895 35.9732 113.243 33.2502 113.243 29.7212C113.243 26.1932 115.895 23.4692 119.495 23.4692C121.816 23.4692 123.829 24.7012 124.8 26.5242L122.171 28.0642C121.697 27.0932 120.679 26.4772 119.471 26.4772C117.648 26.4772 116.298 27.8272 116.298 29.7212C116.298 31.5922 117.648 32.9422 119.471 32.9422C120.703 32.9422 121.721 32.3502 122.195 31.3792L124.847 32.8952V32.8952Z" fill="#9FA6B2"/>
<path fill-rule="evenodd" clip-rule="evenodd" d="M135.277 25.1982V23.8012H138.332V35.6412H135.277V34.2452C134.424 35.3102 133.145 35.9732 131.417 35.9732C128.267 35.9732 125.662 33.2502 125.662 29.7212C125.662 26.1932 128.267 23.4692 131.417 23.4692C133.145 23.4692 134.424 24.1322 135.277 25.1992V25.1982ZM128.717 29.7212C128.717 31.7112 130.114 33.0612 131.985 33.0612C133.88 33.0612 135.277 31.7112 135.277 29.7212C135.277 27.7322 133.88 26.3822 131.985 26.3822C130.114 26.3822 128.717 27.7322 128.717 29.7222V29.7212ZM161.516 35.9732C164.997 35.9732 167.791 33.2502 167.791 29.7212C167.791 26.1932 164.997 23.4692 161.516 23.4692C158.035 23.4692 155.264 26.1932 155.264 29.7212C155.264 33.2502 158.035 35.9732 161.516 35.9732ZM161.516 32.9892C159.716 32.9892 158.319 31.6392 158.319 29.7212C158.319 27.8032 159.716 26.4532 161.516 26.4532C163.339 26.4532 164.736 27.8032 164.736 29.7212C164.736 31.6402 163.339 32.9892 161.516 32.9892Z" fill="#9FA6B2"/>
<path d="M172.995 25.1272C173.706 24.0612 174.937 23.4692 176.524 23.4692C179.034 23.4692 181 25.2222 181 28.3712V35.6412H177.945V28.7512C177.945 27.1412 176.974 26.3112 175.6 26.3112C174.108 26.3112 172.995 27.1872 172.995 29.2482V35.6422H169.94V23.8002H172.995V25.1262V25.1272Z" fill="#9FA6B2"/>
</svg>

<svg xmlns="http://www.w3.org/2000/svg" width="182" height="51" fill="#9fa6b2"  xmlns:v="https://vecta.io/nano"><path fill-rule="evenodd" d="M43.342 20.45l-7.596-4.385v20.37h8.88V38.4H1.2v-1.974h3.947v-12.55l-3.678.92L1 22.9l20.8-5.203h3.08a9.42 9.42 0 0 0-.67 2.525l-.477 3.922 5.096-2.942v15.243h4.933v-20.37l-7.594 4.385a7.4 7.4 0 0 1 2.531-4.736h-4.064a7.39 7.39 0 0 1 6.557-2.933l-5.517-3.186a7.39 7.39 0 0 1 6.607.397c.99.57 1.836 1.363 2.468 2.316.63-.953 1.476-1.746 2.467-2.316a7.39 7.39 0 0 1 6.608-.397l-5.52 3.186a7.39 7.39 0 0 1 6.558 2.933H40.8a7.4 7.4 0 0 1 2.533 4.735l-.001.001zm-18.45 15.986V26.57h-5.92v9.867h5.92zm-10.854-7.894c0 .523-.208 1.025-.578 1.395s-.872.578-1.396.578-1.025-.208-1.396-.578-.578-.872-.578-1.395.208-1.025.578-1.395.872-.578 1.396-.578 1.025.208 1.396.578.578.872.578 1.395z"/><path d="M60.267 35.642h3.718L67.087 24.7l3.126 10.94h3.718l4.642-16.576H75.14l-3.173 12.3-3.48-12.3H65.7l-3.457 12.3-3.174-12.3h-3.433l4.64 16.578z"/><path fill-rule="evenodd" d="M84.55 35.973c3.48 0 6.276-2.723 6.276-6.252s-2.794-6.252-6.276-6.252S78.3 26.193 78.3 29.72s2.77 6.252 6.252 6.252zm0-2.984c-1.8 0-3.197-1.35-3.197-3.268s1.397-3.268 3.197-3.268c1.824 0 3.22 1.35 3.22 3.268s-1.397 3.268-3.22 3.268h-.001z"/><path d="M96.03 23.8v2.037c.617-1.6 2.108-2.273 3.6-2.273v3.4c-1.586-.2-3.6.52-3.6 3.008v5.66h-3.054V23.8h3.054zm16.304 11.842l-4.902-5.992 4.76-5.85h-3.647l-4.073 5.2v-9.946h-3.055v16.578h3.055v-5.376l4.3 5.376h3.552zM153.44 20.5c0 1.018-.853 1.87-1.895 1.87a1.89 1.89 0 0 1-1.871-1.87c0-1.02.853-1.895 1.87-1.895a1.92 1.92 0 0 1 1.895 1.894v.001zm-.355 15.132h-3.055V23.8h3.055v11.842zm-5.21-8.904V23.8H145.2v-3.315l-3.055.923V23.8h-2.06v2.937h2.06v4.925c0 3.197 1.444 4.452 5.73 3.98v-2.77c-1.753.095-2.676.07-2.676-1.208v-4.925l2.676.001zm-23.028 6.157c-1.018 1.847-3.03 3.078-5.352 3.078-3.6 0-6.252-2.723-6.252-6.252s2.652-6.252 6.252-6.252c2.32 0 4.334 1.232 5.305 3.055l-2.63 1.54c-.474-.97-1.492-1.587-2.7-1.587-1.823 0-3.173 1.35-3.173 3.244 0 1.87 1.35 3.22 3.173 3.22 1.232 0 2.25-.592 2.724-1.563l2.652 1.516z"/><path fill-rule="evenodd" d="M135.277 25.198V23.8h3.055v11.84h-3.055v-1.396c-.853 1.065-2.132 1.728-3.86 1.728-3.15 0-5.755-2.723-5.755-6.252s2.605-6.252 5.755-6.252c1.728 0 3.007.663 3.86 1.73v-.001zm-6.56 4.523c0 2 1.397 3.34 3.268 3.34 1.895 0 3.292-1.35 3.292-3.34s-1.397-3.34-3.292-3.34c-1.87 0-3.268 1.35-3.268 3.34v-.001zm32.8 6.252c3.48 0 6.275-2.723 6.275-6.252s-2.794-6.252-6.275-6.252-6.252 2.724-6.252 6.252 2.77 6.252 6.252 6.252zm0-2.984c-1.8 0-3.197-1.35-3.197-3.268s1.397-3.268 3.197-3.268c1.823 0 3.22 1.35 3.22 3.268s-1.397 3.268-3.22 3.268z"/><path d="M172.995 25.127c.71-1.066 1.942-1.658 3.53-1.658 2.5 0 4.476 1.753 4.476 4.902v7.27h-3.055v-6.9c0-1.6-.97-2.44-2.345-2.44-1.492 0-2.605.876-2.605 2.937v6.394h-3.055V23.8h3.055v1.327z"/></svg>
